icons/actions/22/kdenlive-slip.svg

<svg version="1.1" viewBox="0 0 22 22" xmlns="http://www.w3.org/2000/svg">
    <style id="current-color-scheme" type="text/css">.ColorScheme-Text { 
     fill:#232629;
	 }</style>
    <path class="ColorScheme-Text" d="M 16.000258,3.0001848 16,4 h 2.00003 L 18,18 h -2 v 1 l 3,0 V 3.000517 Z"/>
    <path class="ColorScheme-Text" d="M 7.9996931,7.0001663 3.9995109,11.000185 7.9996931,15.000203 8,12 h 2 V 10 H 8 Z"/>
    <path class="ColorScheme-Text" d="M 13.999819,6.9999813 14.000165,9.999815 12,10 v 2 l 2.000165,-1.85e-4 -3.46e-4,3.000203 L 18,11 Z"/>
    <path class="ColorScheme-Text" d="m3 3v15.999852l3 1.48e-4v-1h-2v-14h2v-0.9998523z"/>
</svg>

<svg version="1.1" viewBox="0 0 22 22" xmlns="http://www.w3.org/2000/svg">
    <defs>
        <style id="current-color-scheme" type="text/css">.ColorScheme-Text {
        color:#232629;
      }</style>
    </defs>
    <path style="fill:currentColor;fill-opacity:1;stroke:none" d="m3 3v16h3v-1h-2v-7-7h2v-1h-3zm1 8 4 4v-3h2v-2h-2v-3l-4 4zm12-8v1h2v7 7h-2v1h3v-16h-3zm2 8-4-4v3h-2v2h2v3l4-4z" class="ColorScheme-Text"/>
</svg>
